packages/foundations/assets/icons/functional/images/transportation/bus_20_inverted.svg

<svg width="20" height="20" viewBox="0 0 20 20" fill="none" xmlns="http://www.w3.org/2000/svg">
<g clip-path="url(#clip0_2214_6688)">
<path fill-rule="evenodd" clip-rule="evenodd" d="M13.4361 2.075C14.3772 2.075 14.8673 2.16963 15.3777 2.44259C15.8517 2.69612 16.2288 3.07324 16.4824 3.54729C16.6946 3.94418 16.799 4.32879 16.835 4.92278L17.8 4.925V8.925L16.85 8.924V14.6431C16.85 15.1109 16.8039 15.4078 16.6759 15.6925C16.5479 15.9773 16.2608 16.3458 16 16.473V17.925H13.5V16.775H6.49895L6.49995 17.925H3.99995L3.99843 16.4757C3.73936 16.3122 3.52983 16.087 3.38398 15.8143C3.23181 15.5297 3.16676 15.2558 3.15287 14.8336C3.14362 14.5521 3.14264 12.5822 3.14995 8.924L2.19995 8.925V4.925L3.16491 4.92278C3.20086 4.32879 3.30528 3.94418 3.51754 3.54729C3.77107 3.07324 4.14819 2.69612 4.62225 2.44259C5.09009 2.19238 5.54088 2.09201 6.33768 2.07702L13.4361 2.075ZM5.84995 13.175C5.29767 13.175 4.84995 13.6227 4.84995 14.175C4.84995 14.7273 5.29767 15.175 5.84995 15.175C6.40224 15.175 6.84995 14.7273 6.84995 14.175C6.84995 13.6227 6.40224 13.175 5.84995 13.175ZM14.0435 13.175C13.4912 13.175 13.0435 13.6227 13.0435 14.175C13.0435 14.7273 13.4912 15.175 14.0435 15.175C14.5958 15.175 15.0435 14.7273 15.0435 14.175C15.0435 13.6227 14.5958 13.175 14.0435 13.175ZM15.15 5.674H4.84995L4.85095 11.5569C6.56728 11.8146 8.28362 11.9435 9.99995 11.9435C11.7166 11.9435 13.4333 11.8146 15.15 11.5568V5.674ZM13 3.175H6.99995V4.675H13V3.175Z" fill="#1A1C1F"/>
</g>
<defs>
<clipPath id="clip0_2214_6688">
<rect width="20" height="20" fill="white"/>
</clipPath>
</defs>
</svg>

<svg xmlns="http://www.w3.org/2000/svg" width="20" height="20" fill="none"><g clip-path="url(#a)"><path fill="#1A1C1F" fill-rule="evenodd" d="M13.436 2.075c.941 0 1.431.095 1.942.368.474.253.85.63 1.104 1.104.213.397.317.782.353 1.376l.965.002v4l-.95-.001v5.72c0 .467-.046.764-.174 1.049s-.415.653-.676.78v1.452h-2.5v-1.15H6.499l.001 1.15H4l-.002-1.45a1.76 1.76 0 0 1-.614-.66c-.152-.285-.217-.56-.231-.981q-.014-.423-.003-5.91l-.95.001v-4l.965-.002c.036-.594.14-.979.353-1.376.253-.474.63-.85 1.104-1.104.468-.25.919-.351 1.716-.366zm-7.586 11.1a1 1 0 1 0 0 2 1 1 0 0 0 0-2m8.194 0a1 1 0 1 0 0 2 1 1 0 0 0 0-2m1.106-7.501H4.85l.001 5.883q2.575.386 5.149.386 2.575 0 5.15-.386zM13 3.175H7v1.5h6z" clip-rule="evenodd"/></g><defs><clipPath id="a"><path fill="#fff" d="M0 0h20v20H0z"/></clipPath></defs></svg>
